lib/flags/je-jersey.svg

<svg xmlns="http://www.w3.org/2000/svg" fill="none" aria-hidden="true" viewBox="0 0 42 30"><g id="Country=JE - Jersey, Size=sm (36x24)" filter="url(#filter0_dd_91_27322)"><g clip-path="url(#clip0_91_27322)"><g id="flag"><mask id="mask0_91_27322" width="36" height="24" x="3" y="2" maskUnits="userSpaceOnUse" style="mask-type:alpha"><rect id="mask" width="36" height="24" x="3" y="2" fill="white"/></mask><g mask="url(#mask0_91_27322)"><g id="contents"><path id="background" fill="#F7FCFF" fill-rule="evenodd" d="M3 2H39V26H3V2Z" clip-rule="evenodd"/><path id="triangles" fill="#F7FCFF" stroke="#E31D1C" stroke-width="2.7" d="M-0.186056 3.21078L-2.1752 2.14164V4.3999V24.3999V26.6582L-0.186056 25.589L18.4189 15.589L20.6313 14.3999L18.4189 13.2108L-0.186056 3.21078Z"/><path id="triangles_2" fill="#F7FCFF" stroke="#E31D1C" stroke-width="2.7" d="M42.4296 3.20031L44.3988 2.18372V4.3999V24.3999V26.6161L42.4296 25.5995L23.0584 15.5995L20.7346 14.3999L23.0584 13.2003L42.4296 3.20031Z"/><g id="mark"><path id="Path 90" fill="#E31D1C" fill-rule="evenodd" d="M18.3839 6.70284C18.3839 6.70284 17.418 10.5011 20.7533 11.96C20.7533 11.96 23.9553 10.4086 23.2361 6.70284C23.2361 6.70284 21.8609 6.29395 20.7675 6.29395C19.6741 6.29395 18.3839 6.70284 18.3839 6.70284Z" clip-rule="evenodd"/><path id="lion" fill="#FFD100" fill-rule="evenodd" d="M18.7304 7.49858C18.7304 7.49858 19.0871 7.3582 19.2637 7.49858C19.4402 7.63895 19.5849 7.48694 19.5849 7.40226C19.5849 7.31758 19.8653 7.02689 19.8653 7.26273C19.8653 7.49858 19.778 7.63174 20.0245 7.63174C20.2709 7.63174 21.3807 7.30595 21.6468 7.40226C21.913 7.49858 22.1166 7.47462 22.049 7.33643C21.9813 7.19824 21.8075 7.11187 21.4727 7.1873C21.1379 7.26273 21.2169 7.33643 20.9275 7.33643C20.6382 7.33643 20.3161 7.26273 20.3161 7.26273C20.3161 7.26273 20.4066 7.1388 20.7369 7.22695C21.0673 7.31511 21.5229 7.11778 21.6468 7.11778C21.7708 7.11778 22.1118 7.11187 22.1456 7.1873C22.1794 7.26273 22.3854 7.33195 22.2284 7.40226C22.0714 7.47258 21.8126 7.51663 21.9907 7.60672C22.1688 7.69682 22.5783 7.67945 22.598 7.77317C22.6178 7.86688 22.8119 8.00683 22.734 8.00683C22.6561 8.00683 22.5153 8.13881 22.3842 8.09862C22.2531 8.05843 22.2377 8.02315 22.3634 7.99059C22.4891 7.95804 22.4879 7.82113 22.3842 7.82113C22.2805 7.82113 22.3311 7.8691 22.095 7.82113C21.859 7.77317 21.5465 7.71985 21.5653 7.82113C21.5841 7.92242 21.7378 8.0779 21.4542 8.09862C21.1707 8.11934 21.0379 8.20254 20.9827 8.13554C20.9275 8.06854 20.7303 7.97927 20.8854 7.95065C21.0405 7.92202 21.1888 8.04795 21.2446 8.02739C21.3005 8.00683 21.4271 7.99538 21.3211 7.90826C21.215 7.82113 21.0401 7.76984 21.2023 7.70463C21.3644 7.63942 21.2364 7.63808 20.9275 7.77317C20.6186 7.90826 20.4468 8.02306 20.1756 8.00683C19.9044 7.99059 19.8029 8.01249 19.7157 7.99059C19.6285 7.9687 19.204 8.23254 19.0818 8.16558C18.9595 8.09862 18.5649 8.07293 18.6359 7.99059C18.707 7.90826 18.8024 7.86587 18.9086 7.90826C19.0148 7.95065 19.1204 7.99304 19.192 7.95065C19.2637 7.90826 19.4706 7.7628 19.4185 7.73371C19.3665 7.70463 19.4168 7.60672 19.1222 7.60672C18.8275 7.60672 18.7239 7.71584 18.654 7.64709C18.584 7.57834 18.7304 7.49858 18.7304 7.49858Z" clip-rule="evenodd"/><path id="lion_2" fill="#FFD100" fill-rule="evenodd" d="M19.0246 8.74649C19.0246 8.74649 19.3382 8.62308 19.4934 8.74649C19.6487 8.86991 19.7759 8.73627 19.7759 8.66182C19.7759 8.58737 20.0224 8.3318 20.0224 8.53915C20.0224 8.74649 19.9456 8.86356 20.1623 8.86356C20.379 8.86356 21.3547 8.57715 21.5886 8.66182C21.8226 8.74649 22.0016 8.72543 21.9422 8.60394C21.8827 8.48245 21.7298 8.40652 21.4355 8.47283C21.1412 8.53915 21.2106 8.60394 20.9562 8.60394C20.7019 8.60394 20.4187 8.53915 20.4187 8.53915C20.4187 8.53915 20.4983 8.4302 20.7887 8.50769C21.0791 8.58519 21.4797 8.41172 21.5886 8.41172C21.6976 8.41172 21.9974 8.40652 22.0271 8.47283C22.0569 8.53915 22.2379 8.6 22.0999 8.66182C21.9619 8.72364 21.7343 8.76237 21.8909 8.84157C22.0475 8.92078 22.4075 8.90551 22.4249 8.9879C22.4422 9.07029 22.6129 9.19333 22.5444 9.19333C22.4759 9.19333 22.3521 9.30936 22.2369 9.27403C22.1216 9.2387 22.1081 9.20768 22.2186 9.17906C22.3291 9.15044 22.328 9.03007 22.2369 9.03007C22.1457 9.03007 22.1902 9.07224 21.9827 9.03007C21.7751 8.9879 21.5004 8.94103 21.517 9.03007C21.5335 9.11912 21.6686 9.25581 21.4193 9.27403C21.17 9.29225 21.0533 9.36539 21.0048 9.30649C20.9562 9.24759 20.7828 9.1691 20.9192 9.14394C21.0556 9.11877 21.1859 9.22948 21.235 9.2114C21.2841 9.19333 21.3955 9.18326 21.3022 9.10667C21.209 9.03007 21.0552 8.98498 21.1978 8.92765C21.3403 8.87032 21.2278 8.86914 20.9562 8.9879C20.6847 9.10667 20.5336 9.2076 20.2952 9.19333C20.0568 9.17906 19.9675 9.19831 19.8908 9.17906C19.8142 9.15981 19.441 9.39177 19.3335 9.3329C19.226 9.27403 18.8791 9.25144 18.9415 9.17906C19.004 9.10667 19.0879 9.0694 19.1813 9.10667C19.2747 9.14394 19.3675 9.18121 19.4304 9.14394C19.4934 9.10667 19.6753 8.97879 19.6296 8.95322C19.5838 8.92765 19.6281 8.84157 19.369 8.84157C19.11 8.84157 19.0189 8.9375 18.9574 8.87706C18.8959 8.81662 19.0246 8.74649 19.0246 8.74649Z" clip-rule="evenodd"/><path id="lion_3" fill="#FFD100" fill-rule="evenodd" d="M19.4412 10.0132C19.4412 10.0132 19.679 9.91962 19.7967 10.0132C19.9144 10.1068 20.0109 10.0055 20.0109 9.949C20.0109 9.89255 20.1978 9.69875 20.1978 9.85598C20.1978 10.0132 20.1396 10.102 20.3039 10.102C20.4682 10.102 21.2081 9.8848 21.3855 9.949C21.5629 10.0132 21.6987 9.99724 21.6536 9.90511C21.6085 9.81299 21.4926 9.75541 21.2694 9.80569C21.0462 9.85598 21.0989 9.90511 20.906 9.90511C20.7131 9.90511 20.4984 9.85598 20.4984 9.85598C20.4984 9.85598 20.5587 9.77336 20.7789 9.83213C20.9991 9.8909 21.3029 9.75935 21.3855 9.75935C21.4681 9.75935 21.6955 9.75541 21.718 9.80569C21.7405 9.85598 21.8778 9.90212 21.7732 9.949C21.6685 9.99588 21.496 10.0252 21.6147 10.0853C21.7334 10.1454 22.0065 10.1338 22.0196 10.1963C22.0328 10.2587 22.1622 10.352 22.1102 10.352C22.0583 10.352 21.9645 10.44 21.8771 10.4132C21.7897 10.3864 21.7794 10.3629 21.8632 10.3412C21.947 10.3195 21.9462 10.2282 21.8771 10.2282C21.8079 10.2282 21.8417 10.2602 21.6843 10.2282C21.5269 10.1963 21.3186 10.1607 21.3311 10.2282C21.3437 10.2958 21.4461 10.3994 21.2571 10.4132C21.068 10.4271 20.9795 10.4825 20.9428 10.4379C20.906 10.3932 20.7744 10.3337 20.8779 10.3146C20.9813 10.2955 21.0801 10.3795 21.1174 10.3658C21.1546 10.352 21.239 10.3444 21.1683 10.2863C21.0976 10.2282 20.981 10.1941 21.0891 10.1506C21.1972 10.1071 21.1119 10.1062 20.906 10.1963C20.7 10.2863 20.5855 10.3629 20.4047 10.352C20.2239 10.3412 20.1562 10.3558 20.0981 10.3412C20.04 10.3266 19.7569 10.5025 19.6754 10.4579C19.594 10.4132 19.3309 10.3961 19.3782 10.3412C19.4256 10.2863 19.4892 10.2581 19.56 10.2863C19.6308 10.3146 19.7012 10.3429 19.7489 10.3146C19.7967 10.2863 19.9346 10.1894 19.8999 10.17C19.8652 10.1506 19.8988 10.0853 19.7024 10.0853C19.5059 10.0853 19.4369 10.1581 19.3903 10.1122C19.3436 10.0664 19.4412 10.0132 19.4412 10.0132Z" clip-rule="evenodd"/></g></g></g></g></g></g><defs><filter id="filter0_dd_91_27322" width="42" height="30" x="0" y="0" color-interpolation-filters="sRGB" filterUnits="userSpaceOnUse"><feFlood flood-opacity="0" result="BackgroundImageFix"/><feColorMatrix in="SourceAlpha" result="hardAlpha" values="0 0 0 0 0 0 0 0 0 0 0 0 0 0 0 0 0 0 127 0"/><feOffset dy="1"/><feGaussianBlur stdDeviation="1"/><feColorMatrix values="0 0 0 0 0.0627451 0 0 0 0 0.0941176 0 0 0 0 0.156863 0 0 0 0.06 0"/><feBlend in2="BackgroundImageFix" result="effect1_dropShadow_91_27322"/><feColorMatrix in="SourceAlpha" result="hardAlpha" values="0 0 0 0 0 0 0 0 0 0 0 0 0 0 0 0 0 0 127 0"/><feOffset dy="1"/><feGaussianBlur stdDeviation="1.5"/><feColorMatrix values="0 0 0 0 0.0627451 0 0 0 0 0.0941176 0 0 0 0 0.156863 0 0 0 0.1 0"/><feBlend in2="effect1_dropShadow_91_27322" result="effect2_dropShadow_91_27322"/><feBlend in="SourceGraphic" in2="effect2_dropShadow_91_27322" result="shape"/></filter><clipPath id="clip0_91_27322"><rect width="36" height="24" x="3" y="2" fill="white" rx="2"/></clipPath></defs></svg>

<svg xmlns="http://www.w3.org/2000/svg" fill="none" aria-hidden="true" viewBox="0 0 42 30"><g filter="url(#a)"><g clip-path="url(#b)"><mask id="c" width="36" height="24" x="3" y="2" maskUnits="userSpaceOnUse" style="mask-type:alpha"><path fill="#fff" d="M3 2h36v24H3z"/></mask><g mask="url(#c)"><path fill="#F7FCFF" fill-rule="evenodd" d="M3 2h36v24H3V2Z" clip-rule="evenodd"/><path fill="#F7FCFF" stroke="#E31D1C" stroke-width="2.7" d="m-.186 3.21-1.99-1.068v24.516l1.99-1.069 18.605-10 2.212-1.19-2.212-1.188-18.605-10ZM42.43 3.2l1.969-1.016v24.432l-1.97-1.017-19.37-10-2.324-1.2 2.323-1.199 19.372-10Z"/><g fill-rule="evenodd" clip-rule="evenodd"><path fill="#E31D1C" d="M18.384 6.703s-.966 3.798 2.37 5.257c0 0 3.201-1.551 2.482-5.257 0 0-1.375-.41-2.469-.41-1.093 0-2.383.41-2.383.41Z"/><path fill="#FFD100" d="M18.73 7.499s.357-.14.534 0c.176.14.32-.012.32-.097 0-.084.281-.375.281-.14 0 .237-.087.37.16.37.246 0 1.356-.326 1.622-.23.266.097.47.073.402-.066-.068-.138-.241-.224-.576-.149-.335.076-.256.15-.546.15-.289 0-.61-.074-.61-.074s.09-.124.42-.036c.33.088.786-.11.91-.11s.465-.005.499.07c.033.076.24.145.082.215-.157.07-.415.115-.237.205.178.09.587.072.607.166.02.094.214.234.136.234-.078 0-.219.132-.35.092-.13-.04-.146-.076-.02-.108.125-.033.124-.17.02-.17s-.053.048-.289 0-.548-.101-.53 0c.02.101.173.257-.11.278-.284.02-.417.104-.472.037-.056-.067-.253-.157-.098-.185.155-.029.304.097.36.076.055-.02.182-.032.076-.119s-.28-.138-.119-.203c.162-.066.034-.067-.275.068-.308.135-.48.25-.751.234-.272-.016-.373.005-.46-.016-.088-.022-.512.242-.634.175-.123-.067-.517-.093-.446-.175.071-.083.166-.125.273-.083.106.043.211.085.283.043.072-.043.279-.188.227-.217-.053-.03-.002-.127-.297-.127-.294 0-.398.109-.468.04s.076-.148.076-.148Zm.295 1.247s.313-.123.468 0c.156.124.283-.01.283-.084 0-.075.246-.33.246-.123 0 .207-.076.325.14.325.217 0 1.193-.287 1.427-.202.234.084.413.063.353-.058-.06-.122-.212-.197-.506-.131-.295.066-.225.13-.48.13-.254 0-.537-.064-.537-.064s.08-.109.37-.031c.29.077.69-.096.8-.096.109 0 .408-.005.438.06.03.067.21.128.073.19-.138.062-.366.1-.21.18.157.079.517.064.535.146.017.082.188.205.12.205-.07 0-.193.116-.308.081-.115-.035-.129-.066-.018-.095.11-.029.109-.149.018-.149s-.047.042-.254 0c-.208-.042-.483-.089-.466 0 .017.09.152.226-.098.244-.249.018-.366.091-.414.032-.049-.058-.222-.137-.086-.162.137-.025.267.085.316.067.05-.018.16-.028.067-.104-.093-.077-.247-.122-.104-.18.142-.057.03-.058-.242.06-.271.12-.422.22-.66.206-.24-.014-.328.005-.405-.014-.077-.02-.45.213-.557.154-.108-.059-.455-.082-.392-.154.062-.072.146-.11.24-.072.093.037.186.074.248.037.063-.037.245-.165.2-.19-.046-.026-.002-.112-.261-.112s-.35.095-.412.035c-.061-.06.068-.13.068-.13Zm.416 1.267s.238-.093.356 0c.117.094.214-.008.214-.064s.187-.25.187-.093-.058.246.106.246.904-.217 1.082-.153c.177.064.313.048.268-.044-.046-.092-.161-.15-.385-.1-.223.051-.17.1-.363.1-.193 0-.408-.049-.408-.049s.06-.083.28-.024c.221.059.525-.073.608-.073.082 0 .31-.004.332.047.023.05.16.096.055.143-.104.047-.277.076-.158.136.118.06.392.049.405.111.013.063.142.156.09.156-.052 0-.145.088-.233.061-.087-.027-.098-.05-.014-.072.084-.021.083-.113.014-.113-.07 0-.035.032-.193 0-.157-.032-.365-.067-.353 0 .013.068.115.171-.074.185-.189.014-.277.07-.314.025-.037-.045-.169-.104-.065-.123.103-.02.202.065.24.05.037-.013.121-.02.05-.079-.07-.058-.187-.092-.079-.135.108-.044.023-.045-.183.045s-.32.167-.501.156c-.181-.01-.249.004-.307-.01-.058-.015-.341.16-.423.116-.081-.045-.344-.062-.297-.117.048-.055.111-.083.182-.055.07.029.141.057.189.029.048-.029.186-.126.15-.145-.034-.02 0-.085-.197-.085-.196 0-.265.073-.312.027-.046-.046.051-.099.051-.099Z"/></g></g></g></g><defs><clipPath id="b"><rect width="36" height="24" x="3" y="2" fill="#fff" rx="2"/></clipPath><filter id="a" width="42" height="30" x="0" y="0" color-interpolation-filters="sRGB" filterUnits="userSpaceOnUse"><feFlood flood-opacity="0" result="BackgroundImageFix"/><feColorMatrix in="SourceAlpha" result="hardAlpha" values="0 0 0 0 0 0 0 0 0 0 0 0 0 0 0 0 0 0 127 0"/><feOffset dy="1"/><feGaussianBlur stdDeviation="1"/><feColorMatrix values="0 0 0 0 0.0627451 0 0 0 0 0.0941176 0 0 0 0 0.156863 0 0 0 0.06 0"/><feBlend in2="BackgroundImageFix" result="effect1_dropShadow_91_27322"/><feColorMatrix in="SourceAlpha" result="hardAlpha" values="0 0 0 0 0 0 0 0 0 0 0 0 0 0 0 0 0 0 127 0"/><feOffset dy="1"/><feGaussianBlur stdDeviation="1.5"/><feColorMatrix values="0 0 0 0 0.0627451 0 0 0 0 0.0941176 0 0 0 0 0.156863 0 0 0 0.1 0"/><feBlend in2="effect1_dropShadow_91_27322" result="effect2_dropShadow_91_27322"/><feBlend in="SourceGraphic" in2="effect2_dropShadow_91_27322" result="shape"/></filter></defs></svg>
